lib/functional/design/selection-background.svg

<svg xmlns="http://www.w3.org/2000/svg" fill="none" stroke="currentColor" aria-hidden="true" viewBox="0 0 32 32"><g id="Icon-SelectionBackground"><g clip-path="url(#clip0_8_369)"><g id="size=md (32px)"><g id="SelectionBackground"><path id="Vector" stroke-linecap="round" stroke-linejoin="round" stroke-width="2" d="M20 11H6C5.44772 11 5 11.4477 5 12V26C5 26.5523 5.44772 27 6 27H20C20.5523 27 21 26.5523 21 26V12C21 11.4477 20.5523 11 20 11Z"/><path id="Vector_2" stroke-linecap="round" stroke-linejoin="round" stroke-width="2" d="M20 5H18"/><path id="Vector_3" stroke-linecap="round" stroke-linejoin="round" stroke-width="2" d="M25 5H26C26.2652 5 26.5196 5.10536 26.7071 5.29289C26.8946 5.48043 27 5.73478 27 6V7"/><path id="Vector_4" stroke-linecap="round" stroke-linejoin="round" stroke-width="2" d="M27 14V12"/><path id="Vector_5" stroke-linecap="round" stroke-linejoin="round" stroke-width="2" d="M25 21H26C26.2652 21 26.5196 20.8946 26.7071 20.7071C26.8946 20.5196 27 20.2652 27 20V19"/><path id="Vector_6" stroke-linecap="round" stroke-linejoin="round" stroke-width="2" d="M13 5H12C11.7348 5 11.4804 5.10536 11.2929 5.29289C11.1054 5.48043 11 5.73478 11 6V7"/></g></g></g></g><defs><clipPath id="clip0_8_369"><rect width="32" height="32" fill="white" rx="5"/></clipPath></defs></svg>

<svg xmlns="http://www.w3.org/2000/svg" fill="none" stroke="currentColor" aria-hidden="true" viewBox="0 0 32 32"><path stroke-linecap="round" stroke-linejoin="round" stroke-width="2" d="M20 11H6a1 1 0 0 0-1 1v14a1 1 0 0 0 1 1h14a1 1 0 0 0 1-1V12a1 1 0 0 0-1-1Zm0-6h-2m7 0h1a1 1 0 0 1 1 1v1m0 7v-2m-2 9h1a1 1 0 0 0 1-1v-1M13 5h-1a1 1 0 0 0-1 1v1"/></svg>
